svg/300/outlined/track_changes-fill.svg

<svg xmlns="http://www.w3.org/2000/svg" width="48" height="48" viewBox="0 -960 960 960"><path d="M480.067-100.001q-78.836 0-148.204-29.92-69.369-29.92-120.682-81.21-51.314-51.291-81.247-120.629-29.933-69.337-29.933-148.173t29.925-148.204q29.925-69.369 81.225-120.682 51.3-51.314 120.65-81.247Q401.15-859.999 480-859.999h22.692v324.462q16.999 7.461 27.153 22.372t10.154 33.212q0 24.491-17.731 42.221-17.73 17.731-42.268 17.731t-42.268-17.731q-17.731-17.73-17.731-42.176 0-18.269 10.154-33.026 10.154-14.757 27.153-22.603v-117.847q-65.384 8.307-108.654 57.23Q305.385-547.231 305.385-480q0 72.692 50.961 123.654Q407.308-305.385 480-305.385t123.654-50.961Q654.615-407.308 654.615-480q0-39.846-15.615-72.884-15.616-33.039-42.846-57.27l32.614-32.614q32.692 30.307 51.961 72.161 19.27 41.854 19.27 90.607 0 91.666-64.14 155.832-64.14 64.167-155.768 64.167-91.629 0-155.859-64.167Q260.001-388.334 260.001-480q0-86.461 56.731-148.576 56.731-62.115 140.576-70.807V-814q-131.384 8.308-221.654 104.346Q145.385-613.615 145.385-480q0 139.692 97.461 237.154Q340.308-145.385 480-145.385t237.154-97.461Q814.615-340.308 814.615-480q0-72.846-28.115-135.077-28.116-62.23-77.346-108.077l32.614-32.614q54.692 52.307 86.461 123.113 31.77 70.805 31.77 152.54 0 78.884-29.92 148.252-29.92 69.369-81.21 120.682-51.291 51.314-120.629 81.247-69.337 29.933-148.173 29.933Z"/></svg>

<svg xmlns="http://www.w3.org/2000/svg" width="48" height="48" viewBox="0 -960 960 960"><path d="M480.07-100q-78.84 0-148.21-29.92t-120.68-81.21q-51.31-51.29-81.25-120.63Q100-401.1 100-479.93q0-78.84 29.93-148.21 29.92-69.37 81.22-120.68t120.65-81.25Q401.15-860 480-860h22.69v324.46q17 7.46 27.15 22.38Q540-498.25 540-479.95q0 24.49-17.73 42.22T480-420q-24.54 0-42.27-17.73Q420-455.46 420-479.91q0-18.27 10.16-33.02 10.15-14.76 27.15-22.61v-117.84q-65.39 8.3-108.66 57.23-43.26 48.92-43.26 116.15 0 72.69 50.96 123.65 50.96 50.96 123.65 50.96t123.65-50.96q50.96-50.96 50.96-123.65 0-39.85-15.61-72.88-15.62-33.04-42.85-57.27l32.62-32.62q32.69 30.31 51.96 72.16Q700-528.75 700-480q0 91.67-64.14 155.83Q571.72-260 480.09-260q-91.63 0-155.86-64.17Q260-388.33 260-480q0-86.46 56.73-148.58 56.73-62.11 140.58-70.8V-814q-131.39 8.31-221.66 104.35-90.26 96.03-90.26 229.65 0 139.69 97.46 237.15 97.46 97.46 237.15 97.46t237.15-97.46q97.46-97.46 97.46-237.15 0-72.85-28.11-135.08-28.12-62.23-77.35-108.07l32.62-32.62q54.69 52.31 86.46 123.11Q860-561.85 860-480.11q0 78.88-29.92 148.25t-81.21 120.68q-51.29 51.31-120.63 81.25Q558.9-100 480.07-100Z"/></svg>
